svg/mongodb.svg

<svg viewBox="0 0 20 20" xmlns="http://www.w3.org/2000/svg">
<rect width="100%" height="100%" fill="#001E2B"/>
<path d="M11.5812 3.00623C10.8172 2.1099 10.1593 1.19957 10.0249 1.0105C10.0107 0.996499 9.98949 0.996499 9.97534 1.0105C9.84093 1.19957 9.18301 2.1099 8.41899 3.00623C1.86111 11.2762 9.45184 16.8572 9.45184 16.8572L9.51551 16.8992C9.5721 17.7606 9.71359 19 9.71359 19H9.99656H10.2795C10.2795 19 10.421 17.7676 10.4776 16.8992L10.5413 16.8503C10.5484 16.8503 18.1391 11.2762 11.5812 3.00623ZM9.99656 16.7312C9.99656 16.7312 9.657 16.4441 9.56503 16.297V16.283L9.97534 7.27777C9.97534 7.24975 10.0178 7.24975 10.0178 7.27777L10.4281 16.283V16.297C10.3361 16.4441 9.99656 16.7312 9.99656 16.7312Z" fill="#00ED64"/>
</svg>

<svg xmlns="http://www.w3.org/2000/svg" viewBox="0 0 20 20">
  <rect width="100%" height="100%" fill="#001E2B"/>
  <path fill="#00ED64" d="M11.58 3c-.76-.89-1.42-1.8-1.56-1.99a.03.03 0 0 0-.04 0c-.14.19-.8 1.1-1.56 2-6.56 8.27 1.03 13.85 1.03 13.85l.07.04c.05.86.2 2.1.2 2.1h.56s.14-1.23.2-2.1l.06-.05s7.6-5.57 1.04-13.84ZM10 16.74s-.34-.29-.43-.43v-.02l.4-9c0-.03.05-.03.05 0l.4 9v.02c-.08.14-.42.43-.42.43Z"/>
</svg>
